X: 6
T: Pretty Peggy of Darby O
%R: reel, march
B: "Twenty Four Country Dances for the Year 1782", Thomas Skillern, ed. p.3 #2
F: http://www.vwml.org/browse/browse-collections-dance-tune-books/browse-skillerns1782#
Z: 2014 John Chambers <jc:trillian.mit.edu>
M: 2/4
L: 1/8
K: D
A |\
d2d2 | dcBA | d2d2 | dcBA |\
d2d2 | dfaf | e<cAB | A3 :|
|: d |\
gefg | afed | dBAG | GFGA |\
BcdB | cecA | B2d>e | d3 :|
%%begintext align
%%   Change Sides & back again .| Lead down
%% the middle up again & cast off .|. Allemand
%% with the right & left hands :|. Lead thro' the
%% bottom & cast up lead thro' the top & cast off :|:
%%endtext
